public/images/icon-burger.svg

<svg height="21" viewBox="0 0 21 21" width="21" xmlns="http://www.w3.org/2000/svg"><path d="m0 2h21v2h-21zm0 7h21v2h-21zm0 7h21v2h-21z" fill="#fff" fill-rule="evenodd"/></svg>

<?xml version="1.0" encoding="UTF-8"?>
<svg width="21px" height="21px" viewBox="0 0 21 21" version="1.1" xmlns="http://www.w3.org/2000/svg" xmlns:xlink="http://www.w3.org/1999/xlink">
    <!-- Generator: Sketch 52 (66869) - http://www.bohemiancoding.com/sketch -->
    <title>icon-burger</title>
    <desc>Created with Sketch.</desc>
    <g id="icon-burger" stroke="none" stroke-width="1" fill="none" fill-rule="evenodd">
        <path d="M0,2 L21,2 L21,4 L0,4 L0,2 Z M0,9 L21,9 L21,11 L0,11 L0,9 Z M0,16 L21,16 L21,18 L0,18 L0,16 Z" id="Combined-Shape" fill="#FFFFFF"></path>
    </g>
</svg>
